storage/app/icons/phosphoricons/duotone/car-simple-duotone.svg

<svg xmlns="http://www.w3.org/2000/svg" fill="currentColor" viewBox="0 0 256 256"><path d="M224 112H32l29.89-67.25A8 8 0 0 1 69.2 40h117.6a8 8 0 0 1 7.31 4.75Z" opacity=".2"/><path d="M240 104h-10.8l-27.78-62.5A16 16 0 0 0 186.8 32H69.2a16 16 0 0 0-14.62 9.5L26.8 104H16a8 8 0 0 0 0 16h8v80a16 16 0 0 0 16 16h24a16 16 0 0 0 16-16v-16h96v16a16 16 0 0 0 16 16h24a16 16 0 0 0 16-16v-80h8a8 8 0 0 0 0-16M69.2 48h117.6l24.89 56H44.31ZM216 200h-24v-24a8 8 0 0 0-8-8H72a8 8 0 0 0-8 8v24H40v-80h176Z"/></svg>

<svg xmlns="http://www.w3.org/2000/svg" viewBox="0 0 256 256" fill="currentColor"><path d="M224,112H32L61.89,44.75A8,8,0,0,1,69.2,40H186.8a8,8,0,0,1,7.31,4.75Z" opacity="0.2"/><path d="M240,104H229.2L201.42,41.5A16,16,0,0,0,186.8,32H69.2a16,16,0,0,0-14.62,9.5L26.8,104H16a8,8,0,0,0,0,16h8v80a16,16,0,0,0,16,16H64a16,16,0,0,0,16-16V184h96v16a16,16,0,0,0,16,16h24a16,16,0,0,0,16-16V120h8a8,8,0,0,0,0-16ZM69.2,48H186.8l24.89,56H44.31ZM216,200H192V176a8,8,0,0,0-8-8H72a8,8,0,0,0-8,8v24H40V120H216Z"/></svg>
